public/images/cart-yellpw.svg

<svg fill="none" height="22" viewBox="0 0 24 22" width="24" xmlns="http://www.w3.org/2000/svg"><path d="m23.3333 7.98195-4.25.04166-3.875-7.499994c-.25-.4583338-.875-.666667-1.375-.416667-.4583.25-.6666.875-.4166 1.375001l3.4166 6.5h-9.7083l3.4167-6.5c.25-.500001.0416-1.125001-.4167-1.375001-.5-.25-1.125-.0416668-1.375.416667l-3.875 7.499994-4.208333-.04166c-.375 0-.666667.33333-.666667.66666v1.33334c0 .33335.291667.62495.666667.62495h.958333l1.875 8.5834c.29167 1.2916 1.375 2.125 2.625 2.125h11.7083c1.2084 0 2.3334-.8334 2.625-2.0834l1.875-8.5833h1c.3334 0 .6667-.2917.6667-.625v-1.37499c0-.33333-.3333-.66666-.6667-.66666zm-17.3333 4.33335c-.58333 0-1-.4584-1-1 0-.5834.41667-1 1-1 .54167 0 1 .4166 1 1 0 .5833-.45833 1-1 1zm12 0c-.5833 0-1-.4584-1-1 0-.5834.4167-1 1-1 .5417 0 1 .4166 1 1 0 .5833-.4583 1-1 1z" fill="#fbc825"/></svg>

<svg width="24" height="22" viewBox="0 0 24 22" fill="none" xmlns="http://www.w3.org/2000/svg">
<path d="M23.3333 7.98195L19.0833 8.02361L15.2083 0.523616C14.9583 0.0652822 14.3333 -0.143051 13.8333 0.106949C13.375 0.356949 13.1667 0.981949 13.4167 1.48195L16.8333 7.98195H7.125L10.5417 1.48195C10.7917 0.981949 10.5833 0.356949 10.125 0.106949C9.625 -0.143051 9 0.0652822 8.75 0.523616L4.875 8.02361L0.666667 7.98195C0.291667 7.98195 0 8.31528 0 8.64861V9.98195C0 10.3153 0.291667 10.6069 0.666667 10.6069H1.625L3.5 19.1903C3.79167 20.4819 4.875 21.3153 6.125 21.3153H17.8333C19.0417 21.3153 20.1667 20.4819 20.4583 19.2319L22.3333 10.6486H23.3333C23.6667 10.6486 24 10.3569 24 10.0236V8.64861C24 8.31528 23.6667 7.98195 23.3333 7.98195ZM6 12.3153C5.41667 12.3153 5 11.8569 5 11.3153C5 10.7319 5.41667 10.3153 6 10.3153C6.54167 10.3153 7 10.7319 7 11.3153C7 11.8986 6.54167 12.3153 6 12.3153ZM18 12.3153C17.4167 12.3153 17 11.8569 17 11.3153C17 10.7319 17.4167 10.3153 18 10.3153C18.5417 10.3153 19 10.7319 19 11.3153C19 11.8986 18.5417 12.3153 18 12.3153Z" fill="#FBC825"/>
</svg>
